src/main/resources/icons/TasksCoreIcons/icons/lighthouse.svg

<svg xmlns="http://www.w3.org/2000/svg" xmlns:xlink="http://www.w3.org/1999/xlink" width="16" height="16" viewBox="0 0 16 16">
  <defs>
    <polygon id="lighthouse-a" points=".509 0 5.6 0 6.109 5.6 3.055 6.618 0 5.6"/>
    <linearGradient id="lighthouse-c" x1="50%" x2="52.267%" y1="0%" y2="50%">
      <stop offset="0%" stop-color="#3C83C0"/>
      <stop offset="100%" stop-color="#1F5B8E"/>
    </linearGradient>
  </defs>
  <g fill="none" fill-rule="evenodd" transform="translate(1 1)">
    <circle cx="7" cy="7" r="7" fill="#2B6FA1" fill-rule="nonzero"/>
    <path fill="#1F5B8E" fill-rule="nonzero" d="M9.41717081,5.71138628 L9.41818182,5.71138628 L9.41818182,7.38181818 C9.41818182,7.52484424 9.17282163,7.65684973 8.75863052,7.76311749 L9.16363636,12.2181818 L6.10909091,13.2363636 L3.05454545,12.2181818 L3.4595513,7.76311749 C3.04536019,7.65684973 2.8,7.52484424 2.8,7.38181818 L2.8,5.71138628 L2.80101101,5.71138628 C2.82319712,5.53725569 3.20910831,5.38047316 3.81818182,5.26807 L3.81818182,2.03636364 L8.4,2.03636364 L8.4,5.26807 C9.00907351,5.38047316 9.39498469,5.53725569 9.41717081,5.71138628 Z"/>
    <g transform="translate(4.073 6.618)">
      <mask id="lighthouse-b" fill="#fff">
        <use xlink:href="#lighthouse-a"/>
      </mask>
      <use fill="#DA7F14" fill-rule="nonzero" xlink:href="#lighthouse-a"/>
      <path fill="#CE6801" fill-rule="nonzero" d="M2.92727273,6.10909091 C-1.92279153,6.10909091 -5.85454545,2.17733698 -5.85454545,-2.67272727 C-5.85454545,-7.52279153 -1.92279153,-11.4545455 2.92727273,-11.4545455 C7.77733698,-11.4545455 11.7090909,-7.52279153 11.7090909,-2.67272727 C11.7090909,2.17733698 7.77733698,6.10909091 2.92727273,6.10909091 Z M2.92727273,4.58181818 C6.86355676,4.58181818 10.0545455,1.39082949 10.0545455,-2.54545455 C10.0545455,-6.48173858 6.86355676,-9.67272727 2.92727273,-9.67272727 C-1.00901131,-9.67272727 -4.2,-6.48173858 -4.2,-2.54545455 C-4.2,1.39082949 -1.00901131,4.58181818 2.92727273,4.58181818 Z" mask="url(#lighthouse-b)" opacity=".566"/>
    </g>
    <path fill="#579DD1" fill-rule="nonzero" d="M7,14 C3.13400675,14 0,10.8659932 0,7 C0,3.13400675 3.13400675,0 7,0 C10.8659932,0 14,3.13400675 14,7 C14,10.8659932 10.8659932,14 7,14 Z M7.12727273,12.7272727 C10.2200673,12.7272727 12.7272727,10.2200673 12.7272727,7.12727273 C12.7272727,4.03447813 10.2200673,1.52727273 7.12727273,1.52727273 C4.03447813,1.52727273 1.52727273,4.03447813 1.52727273,7.12727273 C1.52727273,10.2200673 4.03447813,12.7272727 7.12727273,12.7272727 Z"/>
    <path fill="url(#lighthouse-c)" fill-rule="nonzero" d="M8.4,2.11317913 L8.4,6.87272727 L3.81818182,6.87272727 L3.81818182,2.11317913 C3.47878788,2.02280796 3.13939394,1.91235431 2.8,1.78181818 L5.96963623,0.0750909836 L6.19504894,0.0462850957 L9.41818182,1.78181818 C9.07878788,1.91235431 8.73939394,2.02280796 8.4,2.11317913 Z"/>
    <path fill="#F6E5C1" fill-rule="nonzero" d="M3.81818182,7.38181818 L3.81818182,5.71138628 L10.4363636,5.71138628 L10.4363636,7.38181818 C10.4363636,7.73327211 8.95483317,8.01818182 7.12727273,8.01818182 C5.29971228,8.01818182 3.81818182,7.73327211 3.81818182,7.38181818 Z"/>
    <ellipse cx="7.127" cy="5.727" fill="#FFFDDC" fill-rule="nonzero" rx="3.309" ry="1"/>
    <rect width="4.582" height="4.836" x="4.836" y="2.036" fill="#FFFDDC" fill-rule="nonzero"/>
    <path fill="#8C8C8C" fill-rule="nonzero" d="M7.12727273,-1.77635684e-15 L10.4363636,1.78181818 C9.33333333,2.20606061 8.23030303,2.41818182 7.12727273,2.41818182 C6.02424242,2.41818182 4.92121212,2.20606061 3.81818182,1.78181818 L7.12727273,-1.77635684e-15 Z"/>
    <circle cx="6.109" cy="3.818" r="1.018" fill="#E0BB63" fill-rule="nonzero"/>
    <path fill="#FFCB55" fill-rule="nonzero" d="M5.98181818,4.83636364 C6.47385369,4.83636364 6.87272727,4.31021732 6.87272727,3.81818182 C6.87272727,3.32614631 6.47385369,2.8 5.98181818,2.8 C5.48978268,2.8 5.09090909,3.32614631 5.09090909,3.81818182 C5.09090909,4.31021732 5.48978268,4.83636364 5.98181818,4.83636364 Z"/>
  </g>
</svg>

<svg xmlns="http://www.w3.org/2000/svg" xmlns:xlink="http://www.w3.org/1999/xlink" width="16" height="16" viewBox="0 0 16 16"><rect id="frame" width="16" height="16" fill="none"/><defs><path id="a" d="M.509 0H5.6l.509 5.6-3.054 1.018L0 5.6z"/><linearGradient id="c" x1="50%" x2="52.267%" y1="0%" y2="50%"><stop offset="0%" stop-color="#3C83C0"/><stop offset="100%" stop-color="#1F5B8E"/></linearGradient></defs><g fill="none" fill-rule="evenodd" transform="translate(1 1)"><circle cx="7" cy="7" r="7" fill="#2B6FA1" fill-rule="nonzero"/><path fill="#1F5B8E" fill-rule="nonzero" d="M9.417 5.711h.001v1.67c0 .144-.245.276-.66.382l.406 4.455-3.055 1.018-3.054-1.018.405-4.455c-.415-.106-.66-.238-.66-.381v-1.67h.001c.022-.175.408-.332 1.017-.444V2.036H8.4v3.232c.61.112.995.27 1.017.443z"/><g transform="translate(4.073 6.618)"><mask id="b" fill="#fff"><use xlink:href="#a"/></mask><use fill="#DA7F14" fill-rule="nonzero" xlink:href="#a"/><path fill="#CE6801" fill-rule="nonzero" d="M2.927 6.11a8.782 8.782 0 1 1 0-17.565 8.782 8.782 0 0 1 0 17.564zm0-1.528a7.127 7.127 0 1 0 0-14.255 7.127 7.127 0 0 0 0 14.255z" mask="url(#b)" opacity=".566"/></g><path fill="#579DD1" fill-rule="nonzero" d="M7 14A7 7 0 1 1 7 0a7 7 0 0 1 0 14zm.127-1.273a5.6 5.6 0 1 0 0-11.2 5.6 5.6 0 0 0 0 11.2z"/><path fill="url(#c)" fill-rule="nonzero" d="M8.4 2.113v4.76H3.818v-4.76c-.34-.09-.679-.2-1.018-.331L5.97.075l.225-.029 3.223 1.736c-.34.13-.679.24-1.018.331z"/><path fill="#F6E5C1" fill-rule="nonzero" d="M3.818 7.382v-1.67h6.618v1.67c0 .351-1.481.636-3.309.636-1.827 0-3.309-.285-3.309-.636z"/><ellipse cx="7.127" cy="5.727" fill="#FFFDDC" fill-rule="nonzero" rx="3.309" ry="1"/><path fill="#FFFDDC" fill-rule="nonzero" d="M4.836 2.036h4.582v4.836H4.836z"/><path fill="#8C8C8C" fill-rule="nonzero" d="M7.127 0l3.31 1.782a9.16 9.16 0 0 1-3.31.636 9.16 9.16 0 0 1-3.309-.636L7.128 0z"/><circle cx="6.109" cy="3.818" r="1.018" fill="#E0BB63" fill-rule="nonzero"/><path fill="#FFCB55" fill-rule="nonzero" d="M5.982 4.836c.492 0 .89-.526.89-1.018S6.475 2.8 5.983 2.8s-.891.526-.891 1.018.399 1.018.89 1.018z"/></g></svg>
